!!!ONB: MCCC : IJH0433_01 : Extracted Monophonic Melody
!!!COM: Haydn, Joseph
!!!OPR: String Quartet in D major
!!!OMV: 1
!!!SCT: Hob.III:79 ; Op.76 No.5
!!!ODT: 1796///
**kern
*thru
*k[f#c#]
*D:
*clefF
*M6/8
8a
=1
8.dd
16cc#
8dd
8ee
8cc#
8a
=2
8dd
8ee
8ff#
4gg
8ff#
=3
8.ee
16ff#
8ee
8bb
8gg
8ee
=4
16dd
16cc#
16ee
16cc#
16dd
16b
8a
8b
8cc#
=5
8.dd
16cc#
8dd
8ee
8cc#
8a
=6
8dd
8ee
8ff#
4gg
8ff#
=7
8.ee
16ff#
8ee
8bb
8ccc#
8ddd
=8
8.dd
16ee
8cc#
8dd
8r
8a
=9
8.dd
16cc#
8dd
8ee
16dd
16cc#
16b
16a
=10
8dd
8ee
8ff#
4gg
8ff#
=11
8.ee
32gg
32ff#
16ee
16aa#
16ccc#
16bb
16aa
16gg
16ff#
16ee
=12
16dd
16cc#
16ee
16cc#
16dd
16b
8a
8b
8cc#
=13
8.dd
16cc#
8dd
8ee
16dd
16cc#
16b
16a
=14
8dd
8ee
8ff#
4gg
8ff#
=15
8.ee
32gg
32ff#
8ee
8bb
8gg
8ee#
=16
8ff#
16dd
16b
16cc#
16a#
4b
8dd
=17
8.d
16e
8d
8d
8g
8b
=18
8.B
16c
8B
8B
8e
8gg
=19
8.a
16gg
8ff#
8ff#
8ee
8dd
=20
16dd
16cc#
16ee
16cc#
16b
16g#
8a
8b
8cc#
=21
8.dd
16cc#
8dd
8ee
16dd
16cc#
16b
16a
=22
16dd
16cc#
16dd
16ee
16ff
16ff#
4gg
8ff#
=23
8.ee
32gg
32ff#
16ee
16bb
16b
16bb
16aa
16gg
16ff#
16ee
=24
16dd
16cc#
16ee
16cc#
16dd
16b
16a
16aa
16b
16aa
16cc#
16aa
=25
16dd
16aa
16cc#
16aa
16dd
16aa
16ff#
16ee
16dd
16cc#
16b
16a
=26
8dd
8ee
8ff#
4gg
8gg#
=27
16aa
16ff#
16ddd
16aa
16ff#
16dd
8a
8b
8cc#
=28
8.dd
16a
8ff#
8dd
8r
8r
=29
8r
8r
8d
16d
16c#
4e[
=30
16e]
16A
16B
16c#
16d
16f
16f
16e
4g[
=31
16g]
16c
16d
16e
16f
16a
16a
16d
8.b-
16g
=32
16f
16e
8.cc
16a
16g
16f
8.dd
16b-
=33
16a
16g
16gg
16ee
16cc
16b-
16a
16b-
16cc
16dd
16ee
16ff
=34
8gg
8bb-
8ee
8ff
8r
8r
=35
16gg
16aa
16bb-
16ccc
16ddd
16eee
8fff
8r
8r
=36
16ggg
16aaa
16bbb-
16cccc
16dddd
16eeee
8ffff
8r
8r
=37
2.r
=38
2.r
=39
8r
8r
8dd
8.gg
16ff#
8gg
=40
8aa
8ff#
8dd
8.bb-
16aa
8bb-
=41
8ccc
8aa
8ff
8ddd[
16ddd]
32ccc
32bb-
32aa
32gg
32ff
32ee-
=42
8dd
16r
16ff
16bb-
16ddd
8eee-[
16eee-]
32ddd
32ccc
32bb-
32aa
32gg
32ff
=43
8ee-
16r
16ff
16aa
16ccc
8ddd[
16ddd]
32ccc
32bb-
32aa
32gg
32ff
32ee-
=44
8dd
16r
16ff
16bb-
16ddd
8eee-[
16eee-]
32ddd
32ccc
32bb-
32aa
32gg
32ff
=45
8ee-
16r
16ff
16aa
16ccc
12..fff[
96fff]
32eee-
32ddd
32ccc
32bb-
32aa
32gg
32ff
=46
8ee-
8ggg
4.r
8r
=47
8.ccc
16bb
8ccc
8eee-
8ddd
8ccc
=48
8bb-
8r
8r
8aa
8r
8r
=49
2.r
=50
4r
4r
8r
8a
=51
8.ff
16ee
8ff
8gg
16ee
16cc
16ee
16gg
=52
16aa
32aa
32bb-
32ccc
32bb-
32aa
32gg
32ff
32ee
32dd
32cc
8b-
8r
8r
=53
16r
32ff
32gg
32aa
32gg
32ff
32ee
32dd
32cc
32b-
32a
8g
8r
8r
=54
16r
32f
32g
32a
32g
32f
32e
32d
32c
32B-
32A
8G#
8f
8f
=55
16e
32c#
32d
32e
32d
32c#
32B
16A
16g
16f
32f
32g
32a
32g
32f
32e
16d
16dd
=56
16cc#
32cc#
32dd
32ee
32dd
32cc#
32b
32a
32cc#
32ee
32gg
16ff
32ff
32gg
32aa
32gg
32ff
32ee
32dd
32ff
32aa
32ddd
=57
8ccc#
8a
8a
8a
8r
8a
=58
8.dd
16cc#
8dd
8ee
8cc#
8a
=59
8dd
8ee
8ff#
4gg
8ff#
=60
8.ee
32gg
32ff#
16ee
16aa#
16ccc#
16bb
16aa
16gg
16ff#
16ee
=61
16dd
16cc#
16ee
16cc#
16dd
16b
8a
8b
8cc#
=62
32dd
32d
32c#
32d
32e
32f#
32g
32a
32b
32cc#
32dd
32dd#
8ee
16cc#
16ee
16cc#
16a
=63
16dd
16dd
16ee
16ee
16ff#
16ff#
4gg
8ff#
=64
32ee
32ff#
32gg
32ff#
32ee
32ff#
32gg
32ff#
32ee
32ff#
32gg
32aa
8bb
8gg
8ee#
=65
8ff#
16dd
16b
16cc#
16a#
4b
8dd
=66
12..d[
96d]
32e
32d
32e
32d
32e
32d
32e
8d
8g
8b
=67
12..B[
96B]
32c
32B
32c
32B
32c
32B
32c
8B
8e
8gg
=68
32a
32b
32cc#
32dd
32ee
32ff#
32gg
32aa
16gg
16ff#
16ff#
16ee
16bb
16gg
16ee
16dd
=69
16dd
16cc#
16ee
16cc#
16b
16g#
8a
8b
8cc#
=70
8.dd
16cc#
8dd
8ee
16dd
16cc#
16b
16a
=71
16r
16dd
16r
16ee
16r
16ff#
4gg
8gg#
=72
16aa
16ff#
16ddd
16aa
16ff#
16dd
8a
8b
8cc#
=73
16dd
16b
16ff#
16dd
16b
16f#
16d
16B
16G#
16d
16B
16G#
=74
16A
16c#
16e
16g
16cc#
16ee
16gg
16ff#
16aa
16gg
24bb
24gg
24ee
=75
4.dd
4cc#
8r
=76
4r
4r
8r
8aa
=77
8.ddd
16ccc#
8ddd
8eee
8ccc#
8aa
=78
4fff#
4r
8r
8aa
=79
8.ddd
16ccc#
8ddd
8eee
8ccc#
8aa
=80
4fff#
4r
8r
16aa
16gg
=81
16ff#
16gg
16ff#
16ee
8.dd
16cc#
4ee[
=82
16ee]
16a
16b
16cc#
16dd
8ff#
16ee
4gg[
=83
16gg]
16cc#
16dd
16ee
16ff#
8aa
16gg
4bb[
=84
16bb]
16ee
16aa
16bb
16aa
16gg
16ff#
16ee
16dd
16ff#
16ee
16dd
=85
4cc#
4.r
8r
=86
2.r
=87
8r
4.r
8r
8a
=88
8.dd
16cc#
8dd
8ee
8cc#
8a
=89
8.ff#
16ee
8ff#
8gg
8ee
8cc#
=90
8aa
8ff#
8dd
8dd#
8bb
8aa
=91
16gg
16aa
16gg
16ff#
16gg
16bb
16aa
16gg
16ff#
16ee
16dd#
16ff#
=92
16bb
16ccc
16bb
16aa
16bb
16ee
16ccc
16bb
16aa
16gg
16ff#
16ccc
=93
4bb
4.r
8dd
=94
8.gg
16ff#
8gg
8aa
8ff#
8dd
=95
8.bb
16aa#
8bb
8ccc#
8aa#
8ff#
=96
8.ddd
16ccc#
8ddd
8eee
8ccc#
8aa
=97
4fff#
4r
8r
8aa
=98
8.ddd
16ccc#
8ddd
8eee
8ccc#
8aa
=99
4fff#
4r
8r
8aa
=100
8.ddd
16ccc#
8ddd
8fff#
8ddd
8gg#
=101
2aa
8gg
8ee
=102
4dd
4.r
8a
=103
8.ff#
16ee
8ff#
8gg
8ee
8cc#
=104
8aa
8ff#
8dd#
8bb
16gg
16ee
8aa
=105
16ff#
16dd
8gg
16ee
16cc#
8ff#
16dd
16b
8ee
=106
16cc#
16a
16cc#
16a
16dd
16a
16ee
16a
16ff#
16a
16gg
16a
=107
8.ff#
16ee
16dd
16cc#
16b
16a
16g
16f#
16e
16d
=108
8c#
8ee
4.r
8r
=109
8.ff#
16ee
16dd
16cc#
16b
16a
16g
16f#
16e
16d
=110
8c#
8ee
4.r
8r
=111
8.aa
16gg
16ff#
16ee
16dd
16cc
16b
16a
16g
16f#
=112
8g
8bb
8r
8e
8gg
8r
=113
8f#
8aa
8r
8a
8ccc#
8r
=114
8.fff#
16eee
16ddd
16ccc#
16bb
16aa
16gg
16ff#
16ee
16dd
=115
8cc#
8ggg
4.r
8r
=116
8.fff#
16eee
16ddd
16ccc#
16bb
16aa
16gg
16ff#
16ee
16dd
=117
8cc#
8ggg
4.r
8r
=118
8.aaa
16ggg
16fff#
16eee
16ddd
16ccc
16bb
16aa
16gg
16ff#
=119
8gg
8ggg
8r
8e
8gg
8r
=120
8f#
8aa
8r
8e
8ccc#
8r
=121
8d
8ddd
4.r
8r
=122
8.gg
16ff#
16ee
16dd
16cc#
16b
16a
16g
16f#
16e
=123
8d
8ff#
4.r
8r
=124
8.gg
16ff#
16ee
16dd
16cc#
16b
16a
16g
16f#
16e
=125
8d
8f#
8a
8dd
8ff#
8aa
=126
4ddd
8r
4ff#
8r
=127
4ff#
4.r
8r
==
*-
